Catalina-light/places/22/bookmark-missing.svg

<?xml version="1.0" encoding="UTF-8" standalone="no"?>
<!-- Created with Inkscape (http://www.inkscape.org/) -->

<svg
   xmlns:dc="http://purl.org/dc/elements/1.1/"
   xmlns:cc="http://creativecommons.org/ns#"
   xmlns:rdf="http://www.w3.org/1999/02/22-rdf-syntax-ns#"
   xmlns:svg="http://www.w3.org/2000/svg"
   xmlns="http://www.w3.org/2000/svg"
   xmlns:sodipodi="http://sodipodi.sourceforge.net/DTD/sodipodi-0.dtd"
   xmlns:inkscape="http://www.inkscape.org/namespaces/inkscape"
   id="svg7384"
   sodipodi:docname="bookmark-missing.svg"
   version="1.1"
   inkscape:version="0.92.3 (2405546, 2018-03-11)"
   height="22"
   width="22">
  <metadata
     id="metadata90">
    <rdf:RDF>
      <cc:Work
         rdf:about="">
        <dc:format>image/svg+xml</dc:format>
        <dc:type
           rdf:resource="http://purl.org/dc/dcmitype/StillImage" />
        <dc:title>Gnome Symbolic Icon Theme</dc:title>
      </cc:Work>
    </rdf:RDF>
  </metadata>
  <sodipodi:namedview
     inkscape:cy="11.187597"
     pagecolor="#ffffff"
     borderopacity="1"
     showborder="true"
     inkscape:bbox-paths="false"
     guidetolerance="10"
     inkscape:window-width="1918"
     showguides="true"
     inkscape:object-nodes="true"
     inkscape:snap-bbox="true"
     inkscape:pageshadow="2"
     inkscape:guide-bbox="true"
     inkscape:snap-nodes="true"
     bordercolor="#666666"
     objecttolerance="10"
     id="namedview88"
     showgrid="true"
     inkscape:window-maximized="1"
     inkscape:window-x="0"
     inkscape:snap-global="true"
     inkscape:window-y="30"
     gridtolerance="10"
     inkscape:window-height="1024"
     inkscape:snap-to-guides="true"
     inkscape:current-layer="layer13"
     inkscape:zoom="22.627416"
     inkscape:cx="14.162876"
     inkscape:snap-grids="true"
     inkscape:pageopacity="1"
     inkscape:measure-start="10,13"
     inkscape:measure-end="16,17">
    <inkscape:grid
       spacingx="1"
       spacingy="1"
       id="grid4866"
       empspacing="2"
       enabled="true"
       type="xygrid"
       snapvisiblegridlinesonly="true"
       visible="true"
       originx="0"
       originy="0"
       dotted="false" />
    <inkscape:grid
       type="xygrid"
       id="grid880" />
    <sodipodi:guide
       position="15,16.74456"
       orientation="1,0"
       id="guide996"
       inkscape:locked="false" />
    <sodipodi:guide
       position="7,5.25544"
       orientation="1,0"
       id="guide998"
       inkscape:locked="false" />
  </sodipodi:namedview>
  <title
     id="title9167">Gnome Symbolic Icon Theme</title>
  <defs
     id="defs7386">
    <linearGradient
       gradientTransform="matrix(1.4219637,0,0,1.4219637,445.86862,-1429.6129)"
       id="e"
       gradientUnits="userSpaceOnUse"
       x1="-21.401199"
       x2="-21.939327"
       y1="1115.608"
       y2="1136.8896">
      <stop
         offset="0"
         stop-color="#1296d5"
         id="stop22" />
      <stop
         offset="1"
         stop-color="#4fb6e8"
         id="stop24" />
    </linearGradient>
  </defs>
  <g
     inkscape:label="status"
     transform="translate(-442,-170)"
     inkscape:groupmode="layer"
     id="layer9"
     style="display:inline" />
  <g
     inkscape:label="devices"
     transform="translate(-442,-170)"
     inkscape:groupmode="layer"
     id="layer10" />
  <g
     inkscape:label="apps"
     transform="translate(-442,-170)"
     inkscape:groupmode="layer"
     id="layer11" />
  <g
     inkscape:label="actions"
     transform="translate(-442,-170)"
     inkscape:groupmode="layer"
     id="layer12" />
  <g
     inkscape:label="places"
     transform="translate(-442,-170)"
     inkscape:groupmode="layer"
     id="layer13">
    <path
       style="opacity:0.88500001;fill:#000000;fill-opacity:0.60392157;stroke:none;stroke-width:0.86743307;stroke-linecap:butt;stroke-linejoin:round;stroke-miterlimit:4;stroke-dasharray:none;stroke-opacity:1"
       d="M 453,170.5572 A 10.44343,10.44343 0 0 0 442.55664,180.99665 10.44343,10.44343 0 0 0 453,191.44196 10.44343,10.44343 0 0 0 463.44336,180.99665 10.44343,10.44343 0 0 0 453,170.5572 Z m 0,1.36914 a 9.0741563,9.0741563 0 0 1 9.07422,9.07031 A 9.0741563,9.0741563 0 0 1 453,190.07087 9.0741563,9.0741563 0 0 1 443.92579,180.99665 9.0741563,9.0741563 0 0 1 453,171.92634 Z"
       id="path868"
       inkscape:connector-curvature="0" />
    <path
       style="fill:#000000;fill-opacity:0.60392157;stroke:none;stroke-width:1px;stroke-linecap:butt;stroke-linejoin:miter;stroke-opacity:1"
       d="m 457,175.25544 -5.64062,4.60156 -2.35938,6.88672 5.64063,-4.60156 z"
       id="path992"
       inkscape:connector-curvature="0" />
    <path
       style="opacity:0.88500001;fill:#000000;fill-opacity:0.11764706;stroke:none;stroke-width:0.43847492;stroke-linecap:butt;stroke-linejoin:round;stroke-miterlimit:4;stroke-dasharray:none;stroke-opacity:1"
       d="M 11 1.9257812 A 9.0741563 9.0741563 0 0 0 1.9257812 10.996094 A 9.0741563 9.0741563 0 0 0 11 20.070312 A 9.0741563 9.0741563 0 0 0 20.074219 10.996094 A 9.0741563 9.0741563 0 0 0 11 1.9257812 z "
       transform="translate(442,170)"
       id="path1001" />
  </g>
  <g
     inkscape:label="mimetypes"
     transform="translate(-442,-170)"
     inkscape:groupmode="layer"
     id="layer14" />
  <g
     inkscape:label="emblems"
     transform="translate(-442,-170)"
     inkscape:groupmode="layer"
     id="layer15"
     style="display:inline" />
</svg>

<svg width="22" height="22" version="1.1" xmlns="http://www.w3.org/2000/svg">
<g transform="translate(-442,-170)">
<path d="m453 170.56a10.443 10.443 0 0 0-10.443 10.439 10.443 10.443 0 0 0 10.443 10.445 10.443 10.443 0 0 0 10.443-10.445 10.443 10.443 0 0 0-10.443-10.439zm0 1.3691a9.0742 9.0742 0 0 1 9.0742 9.0703 9.0742 9.0742 0 0 1-9.0742 9.0742 9.0742 9.0742 0 0 1-9.0742-9.0742 9.0742 9.0742 0 0 1 9.0742-9.0703z" fill-opacity=".60392" opacity=".885"/>
<path d="m457 175.26-5.6406 4.6016-2.3594 6.8867 5.6406-4.6016z" fill-opacity=".60392"/>
<path transform="translate(442,170)" d="m11 1.9258a9.0742 9.0742 0 0 0-9.0742 9.0703 9.0742 9.0742 0 0 0 9.0742 9.0742 9.0742 9.0742 0 0 0 9.0742-9.0742 9.0742 9.0742 0 0 0-9.0742-9.0703z" fill-opacity=".11765" opacity=".885"/>
</g>
</svg>
